X: 4517
T: Boolavogue
R: waltz
M: 3/4
K: Gmajor
D|"G"G>F G2 Bd|"C"g>f eg- ge|"G"de "Em"B2 AG|"Am"A>G E3 "D"F|
"G"G>F G2 Bd|"C"g>f eg-ge|"G"de B2 AG|"D"A>G"G"G3d|
"Bm"dBd2ef|"C"g>f eg- ge|"G"deB2AG|"Am"A>GE3"D"D|
"G"G>F G2 Bd|"C"g>f eg- ge|"G"de B2 AG|"D"A>G"G"G3||

